packages/icons/src/video.svg

<svg width="15" height="15" viewBox="0 0 15 15" fill="none" xmlns="http://www.w3.org/2000/svg">
  <path
    fill-rule="evenodd"
    clip-rule="evenodd"
    d="M4.76447 3.12199C5.63151 3.04859 6.56082 3 7.5 3C8.43918 3 9.36849 3.04859 10.2355 3.12199C11.2796 3.21037 11.9553 3.27008 12.472 3.39203C12.9425 3.50304 13.2048 3.64976 13.4306 3.88086C13.4553 3.90618 13.4902 3.94414 13.5133 3.97092C13.7126 4.20149 13.8435 4.4887 13.918 5.03283C13.9978 5.6156 14 6.37644 14 7.52493C14 8.66026 13.9978 9.41019 13.9181 9.98538C13.8439 10.5206 13.7137 10.8061 13.5125 11.0387C13.4896 11.0651 13.4541 11.1038 13.4296 11.1287C13.2009 11.3625 12.9406 11.5076 12.4818 11.6164C11.9752 11.7365 11.3143 11.7942 10.2878 11.8797C9.41948 11.9521 8.47566 12 7.5 12C6.52434 12 5.58052 11.9521 4.7122 11.8797C3.68572 11.7942 3.02477 11.7365 2.51816 11.6164C2.05936 11.5076 1.7991 11.3625 1.57037 11.1287C1.54593 11.1038 1.51035 11.0651 1.48748 11.0387C1.28628 10.8061 1.15612 10.5206 1.08193 9.98538C1.00221 9.41019 1 8.66026 1 7.52493C1 6.37644 1.00216 5.6156 1.082 5.03283C1.15654 4.4887 1.28744 4.20149 1.48666 3.97092C1.5098 3.94414 1.54468 3.90618 1.56942 3.88086C1.7952 3.64976 2.05752 3.50304 2.52796 3.39203C3.04473 3.27008 3.7204 3.21037 4.76447 3.12199ZM0 7.52493C0 5.28296 0 4.16198 0.729985 3.31713C0.766457 3.27491 0.815139 3.22194 0.854123 3.18204C1.63439 2.38339 2.64963 2.29744 4.68012 2.12555C5.56923 2.05028 6.52724 2 7.5 2C8.47276 2 9.43077 2.05028 10.3199 2.12555C12.3504 2.29744 13.3656 2.38339 14.1459 3.18204C14.1849 3.22194 14.2335 3.27491 14.27 3.31713C15 4.16198 15 5.28296 15 7.52493C15 9.74012 15 10.8477 14.2688 11.6929C14.2326 11.7348 14.1832 11.7885 14.1444 11.8281C13.3629 12.6269 12.3655 12.71 10.3709 12.8763C9.47971 12.9505 8.50782 13 7.5 13C6.49218 13 5.52028 12.9505 4.62915 12.8763C2.63446 12.71 1.63712 12.6269 0.855558 11.8281C0.816844 11.7885 0.767442 11.7348 0.731221 11.6929C0 10.8477 0 9.74012 0 7.52493ZM5.25 5.38264C5.25 5.20225 5.43522 5.08124 5.60041 5.15369L10.428 7.27105C10.6274 7.35853 10.6274 7.64147 10.428 7.72895L5.60041 9.84631C5.43522 9.91876 5.25 9.79775 5.25 9.61736V5.38264Z"
    fill="currentColor"
  />
</svg>

<svg xmlns="http://www.w3.org/2000/svg" width="15" height="15" fill="none"><path fill="currentColor" fill-rule="evenodd" d="M4.764 3.122A33 33 0 0 1 7.5 3c.94 0 1.868.049 2.736.122 1.044.088 1.72.148 2.236.27.47.111.733.258.959.489.024.025.06.063.082.09.2.23.33.518.405 1.062.08.583.082 1.343.082 2.492 0 1.135-.002 1.885-.082 2.46-.074.536-.204.821-.405 1.054l-.083.09c-.23.234-.49.379-.948.487-.507.12-1.168.178-2.194.264-.869.072-1.812.12-2.788.12s-1.92-.048-2.788-.12c-1.026-.086-1.687-.144-2.194-.264-.459-.108-.719-.253-.948-.487l-.083-.09c-.2-.233-.33-.518-.405-1.054C1.002 9.41 1 8.66 1 7.525c0-1.149.002-1.91.082-2.492.075-.544.205-.832.405-1.062.023-.027.058-.065.082-.09.226-.231.489-.378.959-.489.517-.122 1.192-.182 2.236-.27M0 7.525c0-2.242 0-3.363.73-4.208.036-.042.085-.095.124-.135.78-.799 1.796-.885 3.826-1.056C5.57 2.05 6.527 2 7.5 2s1.93.05 2.82.126c2.03.171 3.046.257 3.826 1.056.039.04.087.093.124.135.73.845.73 1.966.73 4.208 0 2.215 0 3.323-.731 4.168a3 3 0 0 1-.125.135c-.781.799-1.778.882-3.773 1.048C9.48 12.951 8.508 13 7.5 13s-1.98-.05-2.87-.124c-1.996-.166-2.993-.25-3.774-1.048a3 3 0 0 1-.125-.135C0 10.848 0 9.74 0 7.525m5.25-2.142a.25.25 0 0 1 .35-.23l4.828 2.118c.2.088.2.37 0 .458L5.6 9.846a.25.25 0 0 1-.35-.229z" clip-rule="evenodd"/></svg>
